!!!COM: Bach, Johann Sebastian
!!!OPR: Joh. Seb. Bachs vierstimmige Choralgesänge
!!!XEN: Four-part Chorales
!!!OTL: Chorale 163. Vater unser im Himmelreich
!!!SCT: BWV 416
!!!SCA: Thematisch-systematisches Verzeichnis der musikalischen Werke Johann Sebastian Bach: Bach-Werke-Verzeichnis (Schmieder)
!!!YOR: Bach Gesellschaft Edition xxxix
!!!ENC: Steven Rasmussen
!!!CDT: 1685/3//-1750/7/28/
!!!OCY: Deutschland
!!!YEC: Copyright (c) 1994, 2000 Center for Computer Assisted Research in the Humanities
!!!YEM: Rights to all derivative editions reserved
!!!YEN: United States of America
**kern	**kern	**kern	**kern	**silbe
*I:[BASSO]	*I:[TENORE]	*I:[ALTO]	*I:[SOPRANO]	*I:[SOPRANO]
*clefF4	*clefGv2	*clefG2	*clefG2	*
*k[b-]	*k[b-]	*k[b-]	*k[b-]	*
*d:	*d:	*d:	*d:	*
*M4/4	*M4/4	*M4/4	*M4/4	*
4D	4d	4f	4a	Va-
=1	=1	=1	=1	=1
4C#	4A	4e	4a	-ter
4D	4A	4d	4f	un-
4E	4G	4c#	4g	-ser
8FL	4d	8dL	4a	im
8GJ	.	8eJ	.	.
=2	=2	=2	=2	=2
4A	4d	4f	4f	Him-
4AA	4A	4c#	4e	-mel-
4D;	4F;	4A;	4d;	-reich,
4D	4d	4f	4a	der
=3	=3	=3	=3	=3
4C	4A	4e	4a	du
4BB-	4B-	4d	4g	uns
8AAL	4c	4e	4cc	al-
8CJ	.	.	.	.
4F	4c	4f	4a	-le
=4	=4	=4	=4	=4
4B-	8dL	4f	4f	hei-
.	8c#J	.	.	.
4B-	4d	8eL	4g	-ssest
.	.	8dJ	.	.
4A;	4c#;	4e;	4a;	gleich
8AL	4cn	4e	8aL	Brü-
8GJ	.	.	8bnJ	.
=5	=5	=5	=5	=5
4.F	8cL	4a	4cc	-der
.	8AJ	.	.	.
.	8BnL	4g	8ddL	sein
8E	8c#J	.	8eeJ	.
4D	8dL	4f	4ff	und
.	8cnJ	.	.	.
4G	4B-	4g	4ee	dich
=6	=6	=6	=6	=6
4G#	4Bn	8fL	4dd	ru-
.	.	8eJ	.	.
4A	4A	4e	4cc#	-fen
4D;	4A;	4f;	4dd;	an,
4Gn	4B	4f	4dd	und
=7	=7	=7	=7	=7
4C	(8Bn	4e	4ee	willst
.	4A)	.	.	.
4BBn	.	4bn	4dd	das
.	8G#	.	.	.
4AA	4A	4e	4cc	Be-
4E	4G#	8eL	4bn	-ten
.	.	8dJ	.	.
=8	=8	=8	=8	=8
4F	4A	8cL	4a	von
.	.	8dJ	.	.
4E	4Bn	4e	4g#	uns
4AA;	4c;	4e;	4a;	ha'n,
8GL	4B	4g	4dd	gib,
8FJ	.	.	.	.
=9	=9	=9	=9	=9
4E	4c	4g	4cc	dass
4D	4d	4f	4bn	micht
4C	4e	4g	4cc	bet'
8DL	4d	4f	4a	al-
8CJ	.	.	.	.
=10	=10	=10	=10	=10
4BB-	8dL	4f	4a	-lein
.	8cJ	.	.	.
4C	4B-	4e	4g	der
4F;	4A;	4c;	4f;	Mund,
4F#	4A	4d	4a	hilf,
=11	=11	=11	=11	=11
4G	8GL	4d	4b-	dass
.	8FJ	.	.	.
4C#	4E	4e	8aL	es
.	.	.	8gJ	.
8DL	4A	4d	4f	geh'
8CnJ	.	.	.	.
8BB-L	8GL	4d	4g	aus
8AAJ	8AJ	.	.	.
=12	=12	=12	=12	=12
4GG#	4Bn	4d	4f	Her-
4AA	8EL	4c#	4e	-zens
.	16FL	.	.	.
.	16GJJ	.	.	.
4D;	4F#;	4A;	4d;	Grund.
==|!	==|!	==|!	==|!	==|!
*-	*-	*-	*-	*-
!!!RWG: Key is interpreted using the Humdrum key tool.
!!!URL-pdf: https://s9.imslp.org/files/imglnks/usimg/6/6b/IMSLP24489-PMLP09471-CCARH_Bach_Chorales.pdf#page=113 Musedata edition
!!!URL-pdf: https://s9.imslp.org/files/imglnks/usimg/7/7a/IMSLP04155-Bach_-_BGA_253-438.pdf#page=89 	Bach-Gesellschaft Ausgabe, Band 39 (pp.175-276) Leipzig: Breitkopf und Härtel, 1892. Plate B.W. XXXIX.
!!!END: 1994/08/03
!!!EMD: Converted from MuseData to Humdrum Dec 19, 2000, by Andreas Kornstaedt using muse2kern.
!!!EED: Craig Stuart Sapp
!!!EEV: 2024/03/31
!!!filter-keyboard: satb2gs
!!!title: @{OTL} (@{SCT})
